X:37
T:Irish Vaux Hall. BC.37
M:C
L:1/8
Q:100
S:Benjamin Cooke MS.circa 1770, F.Kidson Coll.
R:Misc.
O:England
A:x
Z:vmp.John Bagnall
K:D
d2 (ed/c/ d) A2 d | efga f d2 e | fgab efga | de/f/ gf {f}e2 z |
| a2 ag/ f/ g e2 f |g2-gf/e/ f d2 e | (f/g/a) eg f/g/a eg | fd {f}ed/c/ d2 z |]

